symbolic/64x64/apps/preferences-desktop-accessibility.svg

<svg xmlns="http://www.w3.org/2000/svg" width="64" height="64" version="1">
 <rect style="fill:#3e50b4" width="56" height="56" x="4" y="4" rx="28" ry="28"/>
 <path style="opacity:0.2" d="m 32,15 c -2.2092,0 -4,1.79086 -4,4 0,2.20914 1.79086,4 4,4 2.20914,0 4,-1.79086 4,-4 0,-2.20914 -1.79086,-4 -4,-4 z m -14,10 0,2 10,0 0,24 2,0 0,-12 4,0 0,12 2,0 0,-24 10,0 0,-2 -18,0 z"/>
 <path style="fill:#ffffff" d="m 32,14 c -2.2092,0 -4,1.79086 -4,4 0,2.20914 1.79086,4 4,4 2.20914,0 4,-1.79086 4,-4 0,-2.20914 -1.79086,-4 -4,-4 z m -14,10 0,2 10,0 0,24 2,0 0,-12 4,0 0,12 2,0 0,-24 10,0 0,-2 -18,0 z"/>
 <path style="opacity:0.1;fill:#ffffff" d="M 32 4 C 16.488438 4 4 16.488 4 32 C 4 32.113448 4.0112811 32.224113 4.0175781 32.335938 C 4.3691114 17.134181 16.711159 5 32 5 C 47.288841 5 59.630889 17.134181 59.982422 32.335938 C 59.988693 32.224113 60 32.113448 60 32 C 60 16.488 47.511562 4 32 4 z"/>
 <path style="opacity:0.2" d="M 4.0488281 33 C 4.0490359 33.005918 4.0505699 33.011661 4.0507812 33.017578 C 4.0510045 33.011726 4.0505744 33.005856 4.0507812 33 L 4.0488281 33 z M 4.0507812 33.017578 C 4.0382711 33.34552 4 33.667926 4 34 C 4 34.224037 4.0123968 34.445222 4.0175781 34.667969 C 4.0296765 34.451306 4.0424994 34.234678 4.0507812 34.017578 C 4.0505699 34.011661 4.0490359 34.005918 4.0488281 34 L 4.0507812 34 C 4.0505744 34.005856 4.0510045 34.011726 4.0507812 34.017578 C 4.5877909 49.051232 16.83157 61 32 61 C 47.174 61 59.421219 49.042 59.949219 34 C 59.957015 34.222266 59.969975 34.443039 59.982422 34.664062 C 59.987543 34.44261 60 34.222728 60 34 C 60 33.66232 59.960959 33.33472 59.949219 33 C 59.421219 48.042 47.174 60 32 60 C 16.83157 60 4.5877909 48.051232 4.0507812 33.017578 z"/>
</svg>

<svg xmlns="http://www.w3.org/2000/svg" width="64" height="64" version="1"><rect style="fill:#3e50b4" width="56" height="56" x="4" y="4" rx="28" ry="28"/><path style="opacity:.2" d="M32 15a4 4 0 1 0 0 8 4 4 0 0 0 0-8zM18 25v2h10v24h2V39h4v12h2V27h10v-2H28z"/><path style="fill:#fff" d="M32 14a4 4 0 1 0 0 8 4 4 0 0 0 0-8zM18 24v2h10v24h2V38h4v12h2V26h10v-2H28z"/><path style="opacity:.1;fill:#fff" d="M32 4C16.488 4 4 16.488 4 32c0 .113.011.224.018.336C4.369 17.134 16.71 5 32 5s27.63 12.134 27.982 27.336c.007-.112.018-.223.018-.336C60 16.488 47.512 4 32 4z"/><path style="opacity:.2" d="m4.049 33 .002.018V33h-.002zm.002.018c-.013.328-.051.65-.051.982 0 .224.012.445.018.668.012-.217.024-.433.033-.65L4.049 34h.002v.018C4.588 49.05 16.83 61 32 61c15.174 0 27.421-11.958 27.95-27 .007.222.02.443.032.664.006-.221.018-.441.018-.664 0-.338-.039-.665-.05-1C59.42 48.042 47.173 60 32 60 16.832 60 4.588 48.051 4.05 33.018z"/></svg>
